icons/pins/light/art_gallery_artwork.svg

<svg width="64" height="78" viewBox="0 0 64 78" fill="none" xmlns="http://www.w3.org/2000/svg">
<mask id="path-1-outside-1_760_9059" maskUnits="userSpaceOnUse" x="0" y="0" width="64" height="78" fill="black">
<rect fill="white" width="64" height="78"/>
<path fill-rule="evenodd" clip-rule="evenodd" d="M38 61.3999C51.6934 58.6203 62 46.5137 62 32C62 15.4315 48.5685 2 32 2C15.4315 2 2 15.4315 2 32C2 46.5137 12.3066 58.6203 26 61.3999C29.4824 62.1068 29.933 64.2164 30.2846 65.8624C30.5388 67.0524 30.7412 68 32 68C33.2588 68 33.4612 67.0524 33.7154 65.8624C34.067 64.2164 34.5176 62.1068 38 61.3999ZM32 76C33.6569 76 35 74.6569 35 73C35 71.3431 33.6569 70 32 70C30.3431 70 29 71.3431 29 73C29 74.6569 30.3431 76 32 76Z"/>
</mask>
<path fill-rule="evenodd" clip-rule="evenodd" d="M38 61.3999C51.6934 58.6203 62 46.5137 62 32C62 15.4315 48.5685 2 32 2C15.4315 2 2 15.4315 2 32C2 46.5137 12.3066 58.6203 26 61.3999C29.4824 62.1068 29.933 64.2164 30.2846 65.8624C30.5388 67.0524 30.7412 68 32 68C33.2588 68 33.4612 67.0524 33.7154 65.8624C34.067 64.2164 34.5176 62.1068 38 61.3999ZM32 76C33.6569 76 35 74.6569 35 73C35 71.3431 33.6569 70 32 70C30.3431 70 29 71.3431 29 73C29 74.6569 30.3431 76 32 76Z" fill="url(#paint0_linear_760_9059)"/>
<path fill-rule="evenodd" clip-rule="evenodd" d="M38 61.3999C51.6934 58.6203 62 46.5137 62 32C62 15.4315 48.5685 2 32 2C15.4315 2 2 15.4315 2 32C2 46.5137 12.3066 58.6203 26 61.3999C29.4824 62.1068 29.933 64.2164 30.2846 65.8624C30.5388 67.0524 30.7412 68 32 68C33.2588 68 33.4612 67.0524 33.7154 65.8624C34.067 64.2164 34.5176 62.1068 38 61.3999ZM32 76C33.6569 76 35 74.6569 35 73C35 71.3431 33.6569 70 32 70C30.3431 70 29 71.3431 29 73C29 74.6569 30.3431 76 32 76Z" fill="#DC6EAA"/>
<path d="M38 61.3999L37.6021 59.4399L38 61.3999ZM26 61.3999L26.3979 59.4399H26.3979L26 61.3999ZM30.2846 65.8624L32.2405 65.4446H32.2405L30.2846 65.8624ZM33.7154 65.8624L35.6713 66.2802L33.7154 65.8624ZM60 32C60 45.5438 50.3818 56.8457 37.6021 59.4399L38.3979 63.3599C53.005 60.3948 64 47.4837 64 32H60ZM32 4C47.464 4 60 16.536 60 32H64C64 14.3269 49.6731 0 32 0V4ZM4 32C4 16.536 16.536 4 32 4V0C14.3269 0 0 14.3269 0 32H4ZM26.3979 59.4399C13.6182 56.8457 4 45.5438 4 32H0C0 47.4837 10.995 60.3948 25.6021 63.3599L26.3979 59.4399ZM32.2405 65.4446C32.0747 64.6686 31.8114 63.3207 30.939 62.1099C30.001 60.808 28.5378 59.8742 26.3979 59.4399L25.6021 63.3599C26.9446 63.6324 27.4479 64.107 27.6937 64.4481C28.0051 64.8804 28.1429 65.4103 28.3287 66.2802L32.2405 65.4446ZM32 66C31.9377 66 32.0305 65.9895 32.1832 66.0715C32.3444 66.1581 32.434 66.2731 32.4641 66.3216C32.4806 66.348 32.4535 66.3129 32.4035 66.1407C32.3531 65.967 32.3076 65.759 32.2405 65.4446L28.3287 66.2802C28.4308 66.7582 28.6031 67.687 29.067 68.4333C29.3368 68.8674 29.7289 69.2937 30.2901 69.5952C30.8428 69.8921 31.4329 70 32 70V66ZM31.7595 65.4446C31.6924 65.759 31.6469 65.967 31.5965 66.1407C31.5465 66.3129 31.5194 66.348 31.5359 66.3216C31.566 66.2731 31.6556 66.1581 31.8168 66.0715C31.9695 65.9895 32.0623 66 32 66V70C32.5671 70 33.1572 69.8921 33.7099 69.5952C34.271 69.2937 34.6632 68.8674 34.933 68.4333C35.3969 67.687 35.5692 66.7582 35.6713 66.2802L31.7595 65.4446ZM37.6021 59.4399C35.4622 59.8742 33.999 60.808 33.061 62.1099C32.1886 63.3207 31.9253 64.6686 31.7595 65.4446L35.6713 66.2802C35.8571 65.4103 35.9949 64.8804 36.3063 64.4481C36.5521 64.107 37.0554 63.6324 38.3979 63.3599L37.6021 59.4399ZM33 73C33 73.5523 32.5523 74 32 74V78C34.7614 78 37 75.7614 37 73H33ZM32 72C32.5523 72 33 72.4477 33 73H37C37 70.2386 34.7614 68 32 68V72ZM31 73C31 72.4477 31.4477 72 32 72V68C29.2386 68 27 70.2386 27 73H31ZM32 74C31.4477 74 31 73.5523 31 73H27C27 75.7614 29.2386 78 32 78V74Z" fill="white" mask="url(#path-1-outside-1_760_9059)"/>
<circle cx="32" cy="32" r="27" fill="white"/>
<path fill-rule="evenodd" clip-rule="evenodd" d="M18 28.7424C16.7803 27.735 16 26.2098 16 24.5C16 21.4624 18.4624 19 21.5 19C23.2098 19 24.735 19.7803 25.7424 21H38.2576C39.265 19.7803 40.7902 19 42.5 19C45.5376 19 48 21.4624 48 24.5C48 26.2098 47.2197 27.735 46 28.7424V37.2576C47.2197 38.265 48 39.7902 48 41.5C48 44.5376 45.5376 47 42.5 47C40.7902 47 39.265 46.2197 38.2576 45H25.7424C24.735 46.2197 23.2098 47 21.5 47C18.4624 47 16 44.5376 16 41.5C16 39.7902 16.7803 38.265 18 37.2576V28.7424Z" fill="white"/>
<path d="M30 31C30 32.1046 29.1046 33 28 33C26.8954 33 26 32.1046 26 31C26 29.8954 26.8954 29 28 29C29.1046 29 30 29.8954 30 31Z" fill="#DC6EAA"/>
<path d="M26 37L34 31L38 35V37H26Z" fill="#DC6EAA"/>
<path fill-rule="evenodd" clip-rule="evenodd" d="M20 27.6632C18.8175 27.1015 18 25.8962 18 24.5C18 22.567 19.567 21 21.5 21C22.8962 21 24.1015 21.8175 24.6632 23H39.3368C39.8985 21.8175 41.1038 21 42.5 21C44.433 21 46 22.567 46 24.5C46 25.8962 45.1825 27.1015 44 27.6632V38.3368C45.1825 38.8985 46 40.1038 46 41.5C46 43.433 44.433 45 42.5 45C41.1038 45 39.8985 44.1825 39.3368 43H24.6632C24.1015 44.1825 22.8962 45 21.5 45C19.567 45 18 43.433 18 41.5C18 40.1038 18.8175 38.8985 20 38.3368V27.6632ZM24 39H40V27H24V39Z" fill="#DC6EAA"/>
<defs>
<linearGradient id="paint0_linear_760_9059" x1="5.74911" y1="75.8999" x2="73.2902" y2="22.0909" gradientUnits="userSpaceOnUse">
<stop stop-color="#E700BF"/>
<stop offset="1" stop-color="#57009B"/>
</linearGradient>
</defs>
</svg>

<svg xmlns="http://www.w3.org/2000/svg" width="64" height="78" fill="none"><mask id="b" width="64" height="78" x="0" y="0" fill="#000" maskUnits="userSpaceOnUse"><path fill="#fff" d="M0 0h64v78H0z"/><path fill-rule="evenodd" d="M38 61.4C51.693 58.62 62 46.514 62 32 62 15.432 48.569 2 32 2 15.432 2 2 15.432 2 32c0 14.514 10.307 26.62 24 29.4 3.482.707 3.933 2.816 4.285 4.462C30.539 67.052 30.74 68 32 68s1.461-.948 1.715-2.138c.352-1.646.803-3.755 4.285-4.462M32 76a3 3 0 1 0 0-6 3 3 0 0 0 0 6" clip-rule="evenodd"/></mask><path fill="url(#a)" fill-rule="evenodd" d="M38 61.4C51.693 58.62 62 46.514 62 32 62 15.432 48.569 2 32 2 15.432 2 2 15.432 2 32c0 14.514 10.307 26.62 24 29.4 3.482.707 3.933 2.816 4.285 4.462C30.539 67.052 30.74 68 32 68s1.461-.948 1.715-2.138c.352-1.646.803-3.755 4.285-4.462M32 76a3 3 0 1 0 0-6 3 3 0 0 0 0 6" clip-rule="evenodd"/><path fill="#DC6EAA" fill-rule="evenodd" d="M38 61.4C51.693 58.62 62 46.514 62 32 62 15.432 48.569 2 32 2 15.432 2 2 15.432 2 32c0 14.514 10.307 26.62 24 29.4 3.482.707 3.933 2.816 4.285 4.462C30.539 67.052 30.74 68 32 68s1.461-.948 1.715-2.138c.352-1.646.803-3.755 4.285-4.462M32 76a3 3 0 1 0 0-6 3 3 0 0 0 0 6" clip-rule="evenodd"/><path fill="#fff" d="m38 61.4-.398-1.96zm-12 0 .398-1.96zm4.285 4.462 1.955-.417zm3.43 0 1.956.418zM60 32c0 13.544-9.618 24.846-22.398 27.44l.796 3.92C53.005 60.395 64 47.484 64 32zM32 4c15.464 0 28 12.536 28 28h4C64 14.327 49.673 0 32 0zM4 32C4 16.536 16.536 4 32 4V0C14.327 0 0 14.327 0 32zm22.398 27.44C13.618 56.846 4 45.544 4 32H0c0 15.484 10.995 28.395 25.602 31.36zm5.842 6.005c-.165-.776-.429-2.124-1.301-3.335-.938-1.302-2.401-2.236-4.541-2.67l-.796 3.92c1.343.272 1.846.747 2.092 1.088.311.432.449.962.635 1.832zM32 66c-.062 0 .03-.01.183.072.161.086.251.201.281.25.017.026-.01-.01-.06-.181-.05-.174-.096-.382-.164-.696l-3.911.835c.102.478.274 1.407.738 2.153.27.434.662.86 1.223 1.162.553.297 1.143.405 1.71.405zm-.24-.555c-.068.314-.113.522-.164.696-.05.172-.077.207-.06.18a.8.8 0 0 1 .28-.25c.154-.081.246-.071.184-.071v4c.567 0 1.157-.108 1.71-.405a3.24 3.24 0 0 0 1.223-1.162c.464-.746.636-1.675.738-2.153zm5.842-6.005c-2.14.434-3.603 1.368-4.541 2.67-.872 1.21-1.136 2.559-1.302 3.335l3.912.835c.186-.87.324-1.4.635-1.832.246-.341.75-.816 2.092-1.088zM33 73a1 1 0 0 1-1 1v4a5 5 0 0 0 5-5zm-1-1a1 1 0 0 1 1 1h4a5 5 0 0 0-5-5zm-1 1a1 1 0 0 1 1-1v-4a5 5 0 0 0-5 5zm1 1a1 1 0 0 1-1-1h-4a5 5 0 0 0 5 5z" mask="url(#b)"/><circle cx="32" cy="32" r="27" fill="#fff"/><path fill="#fff" fill-rule="evenodd" d="M18 28.742A5.5 5.5 0 1 1 25.742 21h12.516A5.5 5.5 0 1 1 46 28.742v8.516A5.5 5.5 0 1 1 38.258 45H25.742A5.5 5.5 0 1 1 18 37.258z" clip-rule="evenodd"/><path fill="#DC6EAA" d="M30 31a2 2 0 1 1-4 0 2 2 0 0 1 4 0M26 37l8-6 4 4v2z"/><path fill="#DC6EAA" fill-rule="evenodd" d="M20 27.663A3.5 3.5 0 1 1 24.663 23h14.674A3.5 3.5 0 1 1 44 27.663v10.674A3.5 3.5 0 1 1 39.337 43H24.663A3.5 3.5 0 1 1 20 38.337zM24 39h16V27H24z" clip-rule="evenodd"/><defs><linearGradient id="a" x1="5.749" x2="73.29" y1="75.9" y2="22.091" gradientUnits="userSpaceOnUse"><stop stop-color="#E700BF"/><stop offset="1" stop-color="#57009B"/></linearGradient></defs></svg>
